**kern	**silbe	**harmony	**phrase	**leadinstrument	**rhyme	**timestamp	**harte
*ICvox	*	*M4/4	*	*	*	*	*M4/4
*VRlead	*	*	*	*	*	*	*
*Hstimme	*	*	*	*	*	*	*
*G:	*	*G:	*	*	*	*	*G:
*M4/4	*	*	*	*	*	*	*
*clefG2	*	*	*	*	*	*	*
r;	.	1r;	.	r	.	0	N.C.
=1	=1	=1	=1	=1	=1	=1	=1
*>Letter>A	*>Letter>A	*>Letter>A	*>Letter>A	*>Letter>A	*>Letter>A	*>Letter>A	*>Letter>A
*>Label>Intro	*>Label>Intro	*>Label>Intro	*>Label>Intro	*>Label>Intro	*>Label>Intro	*>Label>Intro	*>Label>Intro
1r	.	1GM	newline	guitar	.	0.163	G:maj
=2	=2	=2	=2	=2	=2	=2	=2
2r	.	1GM	.	guitar	.	1.581	G:maj
4r	.	.	.	.	.	.	.
8r	.	.	.	.	.	.	.
8g	You	.	.	.	.	.	.
=3	=3	=3	=3	=3	=3	=3	=3
*>Letter>B	*>Letter>B	*>Letter>B	*>Letter>B	*>Letter>B	*>Letter>B	*>Letter>B	*>Letter>B
*>Label>Verse	*>Label>Verse	*>Label>Verse	*>Label>Verse	*>Label>Verse	*>Label>Verse	*>Label>Verse	*>Label>Verse
4b	can't	1GM	newline	voice	.	3	G:maj
8b	roll-	.	.	.	.	.	.
8b	-er	.	.	.	.	.	.
4g	skate	.	.	.	.	.	.
8g	in	.	.	.	.	.	.
8g	a	.	.	.	.	.	.
=4	=4	=4	=4	=4	=4	=4	=4
8d	buff-	1GM	.	voice	.	4.355	.
8e	-a-	.	.	.	.	.	.
4d	-lo	.	.	.	.	.	.
4B	herd	.	.	.	.	.	.
8r	.	.	.	.	.	.	.
8d	you	.	.	.	.	.	.
=5	=5	=5	=5	=5	=5	=5	=5
4d	can't	1DMm	.	voice	.	5.709	D:7
8d	roll-	.	.	.	.	.	.
8d	-er	.	.	.	.	.	.
4f#	skate	.	.	.	.	.	.
8f#	in	.	.	.	.	.	.
8f#	a	.	.	.	.	.	.
=6	=6	=6	=6	=6	=6	=6	=6
8a	buff-	1DMm	.	voice	.	7.064	D:7
8g#	-a-	.	.	.	.	.	.
4a	-lo	.	.	.	.	.	.
4cc	herd	.	.	.	.	.	.
8r	.	.	.	.	.	.	.
8cc	you	.	.	.	.	.	.
=7	=7	=7	=7	=7	=7	=7	=7
4b	can't	1GM	newline	voice	.	8.419	G:maj
8b	roll-	.	.	.	.	.	.
8b	-er-	.	.	.	.	.	.
4g	-skate	.	.	.	.	.	.
8g	in	.	.	.	.	.	.
8g	a	.	.	.	.	.	.
=8	=8	=8	=8	=8	=8	=8	=8
8d	buff-	1GM	.	voice	.	9.783	G:maj
8e	-a-	.	.	.	.	.	.
4d	-lo	.	.	.	.	.	.
8d	herd	.	.	.	.	.	.
8B	_	.	.	.	.	.	.
8r	.	.	.	.	.	.	.
8B	but	.	.	.	.	.	.
=9	=9	=9	=9	=9	=9	=9	=9
8d	you	1DMm	.	voice	.	11.148	D:7
8d	can	.	.	.	.	.	.
4d	be	.	.	.	.	.	.
8f#	hap-	.	.	.	.	.	.
8e	-py	.	.	.	.	.	.
8e	if	.	.	.	.	.	.
[8d	you've	.	.	.	.	.	.
=10	=10	=10	=10	=10	=10	=10	=10
8d]	_	1GM	.	voice	.	12.512	G:maj
8d	a	.	.	.	.	.	.
4d	mind	.	.	.	.	.	.
4c	to	.	.	.	.	.	.
8r	.	.	.	.	.	.	.
8g	You	.	.	.	.	.	.
=11	=11	=11	=11	=11	=11	=11	=11
4b	can't	1GM	newline	voice	.	13.877	G:maj
8b	take	.	.	.	.	.	.
8b	a	.	.	.	.	.	.
8g	shower	.	.	.	.	.	.
8g	in	.	.	.	.	.	.
8g	a	.	.	.	.	.	.
[8d	para	.	.	.	.	.	.
=12	=12	=12	=12	=12	=12	=12	=12
8d]	_	1GM	.	voice	.	15.185	G:maj
4d	keet's	.	.	.	.	.	.
8d	cage	.	.	.	.	.	.
4B	_	.	.	.	.	.	.
8r	.	.	.	.	.	.	.
8B	you	.	.	.	.	.	.
=13	=13	=13	=13	=13	=13	=13	=13
4d	can't	1DMm	.	voice	.	16.493	D:7
8d	take	.	.	.	.	.	.
8d	a	.	.	.	.	.	.
4f#	shower	.	.	.	.	.	.
8f#	in	.	.	.	.	.	.
8f#	a	.	.	.	.	.	.
=14	=14	=14	=14	=14	=14	=14	=14
8a	par-	1DMm	.	voice	.	17.801	D:7
8g#	-a-	.	.	.	.	.	.
4a	-keet's	.	.	.	.	.	.
4cc	cage	.	.	.	.	.	.
8r	.	.	.	.	.	.	.
8cc	you	.	.	.	.	.	.
=15	=15	=15	=15	=15	=15	=15	=15
4b	can't	1GM	newline	voice	.	19.109	G:maj
8b	take	.	.	.	.	.	.
8b	a	.	.	.	.	.	.
4g	shower	.	.	.	.	.	.
8B	in	.	.	.	.	.	.
8d	a	.	.	.	.	.	.
=16	=16	=16	=16	=16	=16	=16	=16
8e	par-	1GM	.	voice	.	20.471	G:maj
8c	-a-	.	.	.	.	.	.
4d	-keet's	.	.	.	.	.	.
8d	cage	.	.	.	.	.	.
8B	_	.	.	.	.	.	.
8r	.	.	.	.	.	.	.
8B	but	.	.	.	.	.	.
=17	=17	=17	=17	=17	=17	=17	=17
8d	you	1DMm	.	voice	.	21.833	D:7
8d	can	.	.	.	.	.	.
4d	be	.	.	.	.	.	.
8f#	hap-	.	.	.	.	.	.
8a	-py	.	.	.	.	.	.
8f#	if	.	.	.	.	.	.
[8f#	you've	.	.	.	.	.	.
=18	=18	=18	=18	=18	=18	=18	=18
8f#]	_	1GM	.	voice	.	23.195	G:maj
8e	a	.	.	.	.	.	.
4.f#	mind	.	.	.	.	.	.
4e	to	.	.	.	.	.	.
8c	All	.	.	.	.	.	.
=19	=19	=19	=19	=19	=19	=19	=19
*>Letter>C	*>Letter>C	*>Letter>C	*>Letter>C	*>Letter>C	*>Letter>C	*>Letter>C	*>Letter>C
*>Label>Chorus	*>Label>Chorus	*>Label>Chorus	*>Label>Chorus	*>Label>Chorus	*>Label>Chorus	*>Label>Chorus	*>Label>Chorus
8g	_	1CM	newline	voice	.	24.557	C:maj
8g	you	.	.	.	A	.	.
8g	got-	.	.	.	.	.	.
8g	-ta	.	.	.	.	.	.
4g	do	.	.	.	A	.	.
8r	.	.	.	.	.	.	.
8e	is	.	.	.	.	.	.
=20	=20	=20	=20	=20	=20	=20	=20
8g	put	1GM	.	voice	.	25.884	G:maj
8g	your	.	.	.	.	.	.
4g	mind	.	.	.	.	.	.
16g	to	.	.	.	A	.	.
[8.b	it	.	.	.	.	.	.
8b]	_	.	.	.	.	.	.
8r	.	.	.	.	.	.	.
=21	=21	=21	=21	=21	=21	=21	=21
8a	knuck-	1AMm	.	voice	(B	27.21	A:7
8f#	-le	.	.	.	b)	.	.
4a	down	.	.	.	.	.	.
8a	buck-	.	.	.	(B	.	.
8f#	-le	.	.	.	b)	.	.
4a	down	.	.	.	.	.	.
=22	=22	=22	=22	=22	=22	=22	=22
16c#	do	1DMm	.	voice	.	28.537	D:7
8.d	it	.	.	.	.	.	.
16c#	do	.	.	.	.	.	.
8.d	it	.	.	.	.	.	.
16c#	do	.	.	.	.	.	.
8.d	it	.	.	.	.	.	.
8d	Well	.	.	.	.	.	.
8d	you	.	.	.	.	.	.
=23	=23	=23	=23	=23	=23	=23	=23
*>Letter>B	*>Letter>B	*>Letter>B	*>Letter>B	*>Letter>B	*>Letter>B	*>Letter>B	*>Letter>B
*>Label>Verse	*>Label>Verse	*>Label>Verse	*>Label>Verse	*>Label>Verse	*>Label>Verse	*>Label>Verse	*>Label>Verse
4b	can't	1GM	newline	voice	.	29.863	G:maj
4b	go	.	.	.	.	.	.
8g	swimm-	.	.	.	.	.	.
8e	-in'	.	.	.	.	.	.
8g	in	.	.	.	.	.	.
8g	a	.	.	.	.	.	.
=24	=24	=24	=24	=24	=24	=24	=24
4d	base-	1GM	.	voice	.	31.219	G:maj
4d	-ball	.	.	.	.	.	.
8d	pool	.	.	.	.	.	.
8B	_	.	.	.	.	.	.
8r	.	.	.	.	.	.	.
8B	you	.	.	.	.	.	.
=25	=25	=25	=25	=25	=25	=25	=25
4d	can't	1DMm	.	voice	.	32.575	D:7
4d	go	.	.	.	.	.	.
8f#	swimm-	.	.	.	.	.	.
8f#	-in'	.	.	.	.	.	.
8f#	in	.	.	.	.	.	.
8f#	a	.	.	.	.	.	.
=26	=26	=26	=26	=26	=26	=26	=26
4a	base-	1DMm	.	voice	.	33.931	D:7
4a	-bass	.	.	.	.	.	.
4cc	pool	.	.	.	.	.	.
8r	.	.	.	.	.	.	.
8cc	you	.	.	.	.	.	.
=27	=27	=27	=27	=27	=27	=27	=27
4b	can't	1GM	newline	voice	.	35.287	G:maj
4b	go	.	.	.	.	.	.
8g	swimm-	.	.	.	.	.	.
8e	-in'	.	.	.	.	.	.
8g	in	.	.	.	.	.	.
8g	a	.	.	.	.	.	.
=28	=28	=28	=28	=28	=28	=28	=28
4d	base-	1GM	.	voice	.	36.616	G:maj
4d	-ball	.	.	.	.	.	.
8d	pool	.	.	.	.	.	.
8B	_	.	.	.	.	.	.
8r	.	.	.	.	.	.	.
8d	but	.	.	.	.	.	.
=29	=29	=29	=29	=29	=29	=29	=29
8d	you	1DMm	.	voice	.	37.944	D:7
8d	can	.	.	.	.	.	.
4d	be	.	.	.	.	.	.
8f#	hap-	.	.	.	.	.	.
8a	-py	.	.	.	.	.	.
8f#	if	.	.	.	.	.	.
[8f#	you've	.	.	.	.	.	.
=30	=30	=30	=30	=30	=30	=30	=30
8f#]	_	1GM	.	voice	.	39.273	G:maj
8g	a	.	.	.	.	.	.
4g	mind	.	.	.	.	.	.
4g	to	.	.	.	.	.	.
4r	.	.	.	.	.	.	.
=31	=31	=31	=31	=31	=31	=31	=31
*>Letter>D	*>Letter>D	*>Letter>D	*>Letter>D	*>Letter>D	*>Letter>D	*>Letter>D	*>Letter>D
*>Label>Solo	*>Label>Solo	*>Label>Solo	*>Label>Solo	*>Label>Solo	*>Label>Solo	*>Label>Solo	*>Label>Solo
1r	.	1GM	newline	voice	.	40.601	G:maj
=32	=32	=32	=32	=32	=32	=32	=32
1r	.	1CM	.	voice	.	41.954	C:maj
=33	=33	=33	=33	=33	=33	=33	=33
1r	.	1DMm	.	voice	.	43.306	D:7
=34	=34	=34	=34	=34	=34	=34	=34
1r	.	1DMm	.	voice	.	44.659	D:7
=35	=35	=35	=35	=35	=35	=35	=35
1r	.	1GM	newline	voice	.	46.011	G:maj
=36	=36	=36	=36	=36	=36	=36	=36
1r	.	1CM	.	voice	.	47.352	C:maj
=37	=37	=37	=37	=37	=37	=37	=37
1r	.	1DMm	.	voice	.	48.693	D:7
=38	=38	=38	=38	=38	=38	=38	=38
*M2/4	*	*M2/4	*M2/4	*M2/4	*	*M2/4	*M2/4
2r	.	2DMm	.	voice	.	50.034	D:7
=39	=39	=39	=39	=39	=39	=39	=39
*M4/4	*	*M4/4	*M4/4	*M4/4	*	*M4/4	*M4/4
1r	.	1GM	.	voice	.	50.705	G:maj
=40	=40	=40	=40	=40	=40	=40	=40
2r	.	1GM	.	voice	.	52.046	G:maj
4r	.	.	.	.	.	.	.
8r	.	.	.	.	.	.	.
8g	You	.	.	.	.	.	.
=41	=41	=41	=41	=41	=41	=41	=41
*>Letter>B	*>Letter>B	*>Letter>B	*>Letter>B	*>Letter>B	*>Letter>B	*>Letter>B	*>Letter>B
*>Label>Verse	*>Label>Verse	*>Label>Verse	*>Label>Verse	*>Label>Verse	*>Label>Verse	*>Label>Verse	*>Label>Verse
4b	can't	1GM	newline	voice	.	53.386	G:maj
4b	change	.	.	.	.	.	.
4g	film	.	.	.	.	.	.
8g	with	.	.	.	.	.	.
8g	a	.	.	.	.	.	.
=42	=42	=42	=42	=42	=42	=42	=42
8d	kid	1GM	.	voice	.	54.73	G:maj
4d	on	.	.	.	.	.	.
8d	your	.	.	.	.	.	.
8d	back	.	.	.	.	.	.
8B	_	.	.	.	.	.	.
8r	.	.	.	.	.	.	.
8B	you	.	.	.	.	.	.
=43	=43	=43	=43	=43	=43	=43	=43
4d	can't	1DMm	.	voice	.	56.073	D:7
4d	change	.	.	.	.	.	.
4f#	film	.	.	.	.	.	.
8f#	with	.	.	.	.	.	.
8f#	a	.	.	.	.	.	.
=44	=44	=44	=44	=44	=44	=44	=44
8a	kid	1DMm	.	voice	.	57.416	D:7
4a	on	.	.	.	.	.	.
8a	your	.	.	.	.	.	.
4cc	back	.	.	.	.	.	.
8r	.	.	.	.	.	.	.
8cc	you	.	.	.	.	.	.
=45	=45	=45	=45	=45	=45	=45	=45
4b	can't	1GM	newline	voice	.	58.759	G:maj
4b	change	.	.	.	.	.	.
4g	film	.	.	.	.	.	.
8g	with	.	.	.	.	.	.
8g	a	.	.	.	.	.	.
=46	=46	=46	=46	=46	=46	=46	=46
8d	kid	1GM	.	voice	.	60.124	G:maj
4d	on	.	.	.	.	.	.
8d	your	.	.	.	.	.	.
8d	back	.	.	.	.	.	.
8B	_	.	.	.	.	.	.
8r	.	.	.	.	.	.	.
8B	but	.	.	.	.	.	.
=47	=47	=47	=47	=47	=47	=47	=47
8d	you	1DMm	.	voice	.	61.488	D:7
8d	can	.	.	.	.	.	.
4d	be	.	.	.	.	.	.
8f#	hap-	.	.	.	.	.	.
8e	-py	.	.	.	.	.	.
8e	if	.	.	.	.	.	.
[8d	you've	.	.	.	.	.	.
=48	=48	=48	=48	=48	=48	=48	=48
8d]	_	1GM	.	voice	.	62.852	G:maj
8d	a	.	.	.	.	.	.
4d	mind	.	.	.	.	.	.
4c	to	.	.	.	.	.	.
8r	.	.	.	.	.	.	.
8d	You	.	.	.	.	.	.
=49	=49	=49	=49	=49	=49	=49	=49
4b	can't	1GM	newline	voice	.	64.217	G:maj
8b	drive	.	.	.	.	.	.
8b	a-	.	.	.	.	.	.
4g	-round	.	.	.	.	.	.
8g	with	.	.	.	.	.	.
8g	a	.	.	.	.	.	.
=50	=50	=50	=50	=50	=50	=50	=50
8d	tig-	1GM	.	voice	.	65.528	G:maj
8d	-er	.	.	.	.	.	.
8d	in	.	.	.	.	.	.
8d	your	.	.	.	.	.	.
8d	car	.	.	.	.	.	.
8B	_	.	.	.	.	.	.
8r	.	.	.	.	.	.	.
8B	you	.	.	.	.	.	.
=51	=51	=51	=51	=51	=51	=51	=51
4d	can't	1DMm	.	voice	.	66.84	D:7
8d	drive	.	.	.	.	.	.
8d	a-	.	.	.	.	.	.
4f#	-round	.	.	.	.	.	.
8f#	with	.	.	.	.	.	.
8f#	a	.	.	.	.	.	.
=52	=52	=52	=52	=52	=52	=52	=52
8a	tig-	1DMm	.	voice	.	68.151	D:7
8a	-er	.	.	.	.	.	.
8a	in	.	.	.	.	.	.
8a	your	.	.	.	.	.	.
8a	car	.	.	.	.	.	.
8dd	_	.	.	.	.	.	.
8r	.	.	.	.	.	.	.
8b	you	.	.	.	.	.	.
=53	=53	=53	=53	=53	=53	=53	=53
4dd	can't	1GM	newline	voice	.	69.463	G:maj
8b	drive	.	.	.	.	.	.
8g	a-	.	.	.	.	.	.
4b	-round	.	.	.	.	.	.
8d	with	.	.	.	.	.	.
8d	a	.	.	.	.	.	.
=54	=54	=54	=54	=54	=54	=54	=54
8g	tig-	1GM	.	voice	.	70.862	G:maj
8d	-er	.	.	.	.	.	.
8d	in	.	.	.	.	.	.
8B	your	.	.	.	.	.	.
8B	car	.	.	.	.	.	.
8d	_	.	.	.	.	.	.
8r	.	.	.	.	.	.	.
8B	but	.	.	.	.	.	.
=55	=55	=55	=55	=55	=55	=55	=55
8d	you	1DMm	.	voice	.	72.262	D:7
8d	can	.	.	.	.	.	.
4d	be	.	.	.	.	.	.
8f#	hap-	.	.	.	.	.	.
8a	-py	.	.	.	.	.	.
8f#	if	.	.	.	.	.	.
[8f#	you've	.	.	.	.	.	.
=56	=56	=56	=56	=56	=56	=56	=56
8f#]	_	1GM	.	voice	.	73.661	G:maj
8e	a	.	.	.	.	.	.
4.f#	mind	.	.	.	.	.	.
4e	to	.	.	.	.	.	.
8c	All	.	.	.	.	.	.
=57	=57	=57	=57	=57	=57	=57	=57
*>Letter>C	*>Letter>C	*>Letter>C	*>Letter>C	*>Letter>C	*>Letter>C	*>Letter>C	*>Letter>C
*>Label>Chorus	*>Label>Chorus	*>Label>Chorus	*>Label>Chorus	*>Label>Chorus	*>Label>Chorus	*>Label>Chorus	*>Label>Chorus
8g	_	1CM	newline	voice	.	75.061	C:maj
8g	you	.	.	.	A	.	.
8g	got-	.	.	.	.	.	.
8g	-ta	.	.	.	.	.	.
4g	do	.	.	.	A	.	.
8r	.	.	.	.	.	.	.
8e	is	.	.	.	.	.	.
=58	=58	=58	=58	=58	=58	=58	=58
8g	put	1GM	.	voice	.	76.376	G:maj
8g	your	.	.	.	.	.	.
4g	mind	.	.	.	.	.	.
16g	to	.	.	.	A	.	.
[8.b	it	.	.	.	.	.	.
8b]	_	.	.	.	.	.	.
8r	.	.	.	.	.	.	.
=59	=59	=59	=59	=59	=59	=59	=59
8a	knuck-	1AMm	.	voice	(B	77.69	A:7
8f#	-le	.	.	.	b)	.	.
4a	down	.	.	.	.	.	.
8a	buck-	.	.	.	(B	.	.
8f#	-le	.	.	.	b)	.	.
4a	down	.	.	.	.	.	.
=60	=60	=60	=60	=60	=60	=60	=60
16c#	do	1DMm	.	voice	.	79.005	D:7
8.d	it	.	.	.	.	.	.
16c#	do	.	.	.	.	.	.
8.d	it	.	.	.	.	.	.
16c#	do	.	.	.	.	.	.
8.d	it	.	.	.	.	.	.
8d	Well	.	.	.	.	.	.
8d	you	.	.	.	.	.	.
=61	=61	=61	=61	=61	=61	=61	=61
*>Letter>B	*>Letter>B	*>Letter>B	*>Letter>B	*>Letter>B	*>Letter>B	*>Letter>B	*>Letter>B
*>Label>Verse	*>Label>Verse	*>Label>Verse	*>Label>Verse	*>Label>Verse	*>Label>Verse	*>Label>Verse	*>Label>Verse
4b	can't	1GM	newline	voice	.	80.32	G:maj
8b	roll-	.	.	.	.	.	.
8b	-er	.	.	.	.	.	.
4g	skate	.	.	.	.	.	.
8g	in	.	.	.	.	.	.
8g	a	.	.	.	.	.	.
=62	=62	=62	=62	=62	=62	=62	=62
8d	buff-	1GM	.	voice	.	81.666	G:maj
8e	-a-	.	.	.	.	.	.
4d	-lo	.	.	.	.	.	.
4B	herd	.	.	.	.	.	.
8r	.	.	.	.	.	.	.
8d	you	.	.	.	.	.	.
=63	=63	=63	=63	=63	=63	=63	=63
4d	can't	1DMm	.	voice	.	83.013	D:7
8d	roll-	.	.	.	.	.	.
8d	-er	.	.	.	.	.	.
4f#	skate	.	.	.	.	.	.
8f#	in	.	.	.	.	.	.
8f#	a	.	.	.	.	.	.
=64	=64	=64	=64	=64	=64	=64	=64
8a	buff-	1DMm	.	voice	.	84.359	D:7
8g#	-a-	.	.	.	.	.	.
4a	-lo	.	.	.	.	.	.
4cc	herd	.	.	.	.	.	.
8r	.	.	.	.	.	.	.
8cc	you	.	.	.	.	.	.
=65	=65	=65	=65	=65	=65	=65	=65
4b	can't	1GM	newline	voice	.	85.705	G:maj
8b	roll-	.	.	.	.	.	.
8b	-er-	.	.	.	.	.	.
4g	-skate	.	.	.	.	.	.
8g	in	.	.	.	.	.	.
8g	a	.	.	.	.	.	.
=66	=66	=66	=66	=66	=66	=66	=66
8d	buff-	1GM	.	voice	.	87.071	G:maj
8e	-a-	.	.	.	.	.	.
4d	-lo	.	.	.	.	.	.
8d	herd	.	.	.	.	.	.
8B	_	.	.	.	.	.	.
8r	.	.	.	.	.	.	.
8B	but	.	.	.	.	.	.
=67	=67	=67	=67	=67	=67	=67	=67
8d	you	1DMm	.	voice	.	88.437	D:7
8d	can	.	.	.	.	.	.
4d	be	.	.	.	.	.	.
8f#	hap-	.	.	.	.	.	.
8e	-py	.	.	.	.	.	.
8e	if	.	.	.	.	.	.
[8d	you've	.	.	.	.	.	.
=68	=68	=68	=68	=68	=68	=68	=68
8d]	_	1GM	.	voice	.	89.802	G:maj
8d	a	.	.	.	.	.	.
4d	mind	.	.	.	.	.	.
4c	to	.	.	.	.	.	.
8r	.	.	.	.	.	.	.
8d	You	.	.	.	.	.	.
=69	=69	=69	=69	=69	=69	=69	=69
4b	can't	1GM	newline	voice	.	91.168	G:maj
4b	go	.	.	.	.	.	.
8g	fish-	.	.	.	.	.	.
8g	-in'	.	.	.	.	.	.
8g	in	.	.	.	.	.	.
8g	a	.	.	.	.	.	.
=70	=70	=70	=70	=70	=70	=70	=70
8d	wat-	1GM	.	voice	.	92.494	G:maj
8d	-er-	.	.	.	.	.	.
8d	-mel-	.	.	.	.	.	.
8d	-on	.	.	.	.	.	.
8d	patch	.	.	.	.	.	.
8B	_	.	.	.	.	.	.
8r	.	.	.	.	.	.	.
8B	you	.	.	.	.	.	.
=71	=71	=71	=71	=71	=71	=71	=71
4d	can't	1DMm	.	voice	.	93.819	D:7
4d	go	.	.	.	.	.	.
8f#	fish-	.	.	.	.	.	.
8f#	-in'	.	.	.	.	.	.
8f#	in	.	.	.	.	.	.
8f#	a	.	.	.	.	.	.
=72	=72	=72	=72	=72	=72	=72	=72
8a	wat-	1DMm	.	voice	.	95.144	D:7
8a	-er-	.	.	.	.	.	.
8a	-mel-	.	.	.	.	.	.
8a	-on	.	.	.	.	.	.
8a	patch	.	.	.	.	.	.
8dd	_	.	.	.	.	.	.
8r	.	.	.	.	.	.	.
8d	You	.	.	.	.	.	.
=73	=73	=73	=73	=73	=73	=73	=73
4b	can't	1GM	newline	voice	.	96.47	G:maj
4b	go	.	.	.	.	.	.
8dd	fish-	.	.	.	.	.	.
8b	-in'	.	.	.	.	.	.
8a	in	.	.	.	.	.	.
8g	a	.	.	.	.	.	.
=74	=74	=74	=74	=74	=74	=74	=74
8d	wat-	1GM	.	voice	.	97.835	G:maj
8e	-er-	.	.	.	.	.	.
8d	-mel-	.	.	.	.	.	.
8c	-on	.	.	.	.	.	.
4B	patch	.	.	.	.	.	.
8r	.	.	.	.	.	.	.
8d	but	.	.	.	.	.	.
=75	=75	=75	=75	=75	=75	=75	=75
8d	you	1DMm	.	voice	.	99.2	D:7
8d	can	.	.	.	.	.	.
4d	be	.	.	.	.	.	.
8f#	hap-	.	.	.	.	.	.
8a	-py	.	.	.	.	.	.
8f#	if	.	.	.	.	.	.
[8f#	you've	.	.	.	.	.	.
=76	=76	=76	=76	=76	=76	=76	=76
8f#]	_	1GM	.	voice	.	100.565	G:maj
8g	a	.	.	.	.	.	.
4g	mind	.	.	.	.	.	.
4g	to	.	.	.	.	.	.
8r	.	.	.	.	.	.	.
8g	You	.	.	.	.	.	.
=77	=77	=77	=77	=77	=77	=77	=77
4b	can't	1GM	newline	voice	.	101.93	G:maj
8b	roll-	.	.	.	.	.	.
8b	-er	.	.	.	.	.	.
4g	skate	.	.	.	.	.	.
8d	in	.	.	.	.	.	.
8d	a	.	.	.	.	.	.
=78	=78	=78	=78	=78	=78	=78	=78
8g	buff-	1GM	.	voice	.	103.277	G:maj
8g	-a-	.	.	.	.	.	.
8g	-lo	.	.	.	.	.	.
8g	herd	.	.	.	.	.	.
4d	_	.	.	.	.	.	.
8r	.	.	.	.	.	.	.
8d	you	.	.	.	.	.	.
=79	=79	=79	=79	=79	=79	=79	=79
4g	can't	1DMm	.	voice	.	104.625	D:7
8g	rol-	.	.	.	.	.	.
8g	-ler	.	.	.	.	.	.
8g	skate	.	.	.	.	.	.
8b	_	.	.	.	.	.	.
8b	in	.	.	.	.	.	.
8dd	a	.	.	.	.	.	.
=80	=80	=80	=80	=80	=80	=80	=80
8cc	buff-	1DMm	.	voice	.	105.972	D:7
8cc	-a-	.	.	.	.	.	.
4b	-lo	.	.	.	.	.	.
4g	herd	.	.	.	.	.	.
8r	.	.	.	.	.	.	.
8g	You	.	.	.	.	.	.
=81	=81	=81	=81	=81	=81	=81	=81
4b	can't	1GM	newline	voice	.	107.151	G:maj
8b	roll-	.	.	.	.	.	.
8b	-er	.	.	.	.	.	.
4g	skate	.	.	.	.	.	.
8d	in	.	.	.	.	.	.
8d	a	.	.	.	.	.	.
=82	=82	=82	=82	=82	=82	=82	=82
8g	buff-	1GM	.	voice	.	.	G:maj
8g	-a-	.	.	.	.	.	.
8g	-lo	.	.	.	.	.	.
8g	herd	.	.	.	.	.	.
4d	_	.	.	.	.	.	.
8r	.	.	.	.	.	.	.
8B	but	.	.	.	.	.	.
=83	=83	=83	=83	=83	=83	=83	=83
8d	you	1DMm	.	voice	.	.	D:7
8d	can	.	.	.	.	.	.
4d	be	.	.	.	.	.	.
8f#	hap-	.	.	.	.	.	.
8e	-py	.	.	.	.	.	.
8e	if	.	.	.	.	.	.
[8d	you've	.	.	.	.	.	.
=84	=84	=84	=84	=84	=84	=84	=84
8d]	_	1GM	.	voice	.	.	G:maj
8d	a	.	.	.	.	.	.
4d	mind	.	.	.	.	.	.
4c	to	.	.	.	.	.	.
4r	.	.	.	.	.	.	.
r;	.	1r;	.	r	.	107.319	N.C.
r;	.	1r;	.	r	.	112.28	N.C.
*-	*-	*-	*-	*-	*-	*-	*-
!!!BillboardChartDate: 1966/07/30, 1966/07/30
!!!BillboardPeak: 40, 40
!!!BillboardWeeksOnChart: 6, 6
!!!COC: Roger Miller
!!!EMD: The "N" (no chord) label is really cadence on tonic GM. 
!!!ENC: Nathaniel Condit-Schultz
!!!EST: Awating manual error checking and editing.
!!!OTL: You Can't Roller Skate In A Buffalo Herd
!!!RDF**chordsym: original McGill chord annotation + (implied pitch class set, with bass pitch in first position)
!!!RDF**harmony: **recip + pitch class of root + harmonic quality
!!!RDF**leadinstrument: original McGill primary instrumentation annotation
!!!RDF**phrase: newline = linebreak in original McGill transcription
!!!RDF**timestamp: McGill audio timestamp in seconds
!!!RDT: 2017/01/12/
!!!SampleActualRank: 43, 43
!!!SampleID#: 308, 669
!!!SampleTargetRank: 42, 43
